public/assets/beginmate_logo.svg

<svg xmlns="http://www.w3.org/2000/svg" xmlns:xlink="http://www.w3.org/1999/xlink" width="320" height="210" version="1.1" viewBox="0 0 320 210"><title>Artboard</title><g id="Artboard--Artboard" fill="none" fill-rule="evenodd" stroke="none" stroke-width="1"><rect width="320" height="210" x="0" y="0" fill="#FFCF02"/><path id="Artboard--BEGINMATE" fill="#FFF" fill-rule="nonzero" d="M68.392,117.12 C71.272,117.12 73.426,116.58 74.854,115.5 C76.282,114.42 76.996,112.848 76.996,110.784 C76.996,109.296 76.528,108.048 75.592,107.04 C74.656,106.032 73.216,105.408 71.272,105.168 L71.272,105.168 L71.272,105.132 C73.024,104.868 74.314,104.244 75.142,103.26 C75.97,102.276 76.384,101.1 76.384,99.732 C76.384,97.644 75.67,96.066 74.242,94.998 C72.814,93.93 70.612,93.384 67.636,93.36 L67.636,93.36 L55,93.36 L55,117.12 L68.392,117.12 Z M66.16,102.792 L62.056,102.792 L62.056,98.544 L66.16,98.544 C67.96,98.544 68.86,99.252 68.86,100.668 C68.86,102.084 67.96,102.792 66.16,102.792 L66.16,102.792 Z M66.7,112.152 L62.056,112.152 L62.056,107.868 L66.7,107.868 C67.636,107.868 68.332,108.048 68.788,108.408 C69.244,108.768 69.472,109.296 69.472,109.992 C69.472,110.688 69.244,111.222 68.788,111.594 C68.332,111.966 67.636,112.152 66.7,112.152 L66.7,112.152 Z M99.457162,117.12 L99.457162,111.612 L87.181162,111.612 L87.181162,107.832 L96.613162,107.832 L96.613162,102.72 L87.181162,102.72 L87.181162,98.868 L98.989162,98.868 L98.989162,93.36 L79.837162,93.36 L79.837162,117.12 L99.457162,117.12 Z M112.126324,117.48 C114.214324,117.48 115.906324,117.03 117.202324,116.13 C117.850324,115.68 118.390324,115.1325 118.822324,114.4875 L118.947,114.292 L119.218324,117.12 L124.150324,117.12 L124.150324,103.98 L113.278324,103.98 L113.278324,108.696 L117.958324,108.696 L117.958324,108.876 C117.958324,109.404 117.862324,109.866 117.670324,110.262 C117.478324,110.658 117.196324,110.988 116.824324,111.252 C116.452324,111.516 116.026324,111.714 115.546324,111.846 C115.066324,111.978 114.538324,112.044 113.962324,112.044 C112.834324,112.044 111.886324,111.81 111.118324,111.342 C110.350324,110.874 109.780324,110.136 109.408324,109.128 C109.036324,108.12 108.850324,106.824 108.850324,105.24 C108.850324,103.776 109.018324,102.552 109.354324,101.568 C109.690324,100.584 110.200324,99.846 110.884324,99.354 C111.568324,98.862 112.426324,98.616 113.458324,98.616 C114.466324,98.616 115.306324,98.862 115.978324,99.354 C116.650324,99.846 117.106324,100.68 117.346324,101.856 L117.346324,101.856 L124.186324,99.3 C123.250324,97.116 121.924324,95.52 120.208324,94.512 C118.492324,93.504 116.230324,93 113.422324,93 C110.926324,93 108.766324,93.486 106.942324,94.458 C105.118324,95.43 103.720324,96.834 102.748324,98.67 C101.776324,100.506 101.290324,102.72 101.290324,105.312 C101.290324,107.952 101.758324,110.184 102.694324,112.008 C103.630324,113.832 104.914324,115.2 106.546324,116.112 C108.178324,117.024 110.038324,117.48 112.126324,117.48 Z M135.379486,117.12 L135.379486,93.36 L128.035486,93.36 L128.035486,117.12 L135.379486,117.12 Z M146.032648,117.12 L146.032648,106.824 L145.888648,102.144 L145.960648,102.144 L147.472648,105.348 L153.952648,117.12 L162.016648,117.12 L162.016648,93.36 L155.572648,93.36 L155.572648,103.656 L155.716648,108.336 L155.680648,108.336 L154.132648,105.132 L147.652648,93.36 L139.624648,93.36 L139.624648,117.12 L146.032648,117.12 Z M172.74181,117.12 L172.74181,107.616 L172.59781,99.948 L172.70581,99.948 L177.85381,117.12 L183.75781,117.12 L188.97781,99.948 L189.04981,99.948 L188.90581,107.616 L188.90581,117.12 L195.38581,117.12 L195.38581,93.36 L185.48581,93.36 L182.28181,104.628 L181.09381,109.344 L181.02181,109.344 L179.83381,104.628 L176.62981,93.36 L166.26181,93.36 L166.26181,117.12 L172.74181,117.12 Z M204.634972,117.12 L205.999,112.189 L213.239,112.189 L214.570972,117.12 L222.130972,117.12 L214.102972,93.36 L205.282972,93.36 L197.290972,117.12 L204.634972,117.12 Z M211.956,107.437 L207.314,107.437 L208.630972,102.684 L209.602972,98.832 L209.674972,98.832 L210.682972,102.72 L211.956,107.437 Z M234.764134,117.12 L234.764134,98.868 L242.324134,98.868 L242.324134,93.36 L219.788134,93.36 L219.788134,98.868 L227.420134,98.868 L227.420134,117.12 L234.764134,117.12 Z M264.821296,117.12 L264.821296,111.612 L252.545296,111.612 L252.545296,107.832 L261.977296,107.832 L261.977296,102.72 L252.545296,102.72 L252.545296,98.868 L264.353296,98.868 L264.353296,93.36 L245.201296,93.36 L245.201296,117.12 L264.821296,117.12 Z"/></g></svg>

<svg xmlns="http://www.w3.org/2000/svg" width="320" height="210"><g fill="none" fill-rule="evenodd"><path fill="#FFCF02" d="M0 0h320v210H0z"/><path fill="#FFF" fill-rule="nonzero" d="M68.392 117.12c2.88 0 5.034-.54 6.462-1.62s2.142-2.652 2.142-4.716c0-1.488-.468-2.736-1.404-3.744-.936-1.008-2.376-1.632-4.32-1.872v-.036c1.752-.264 3.042-.888 3.87-1.872.828-.984 1.242-2.16 1.242-3.528 0-2.088-.714-3.666-2.142-4.734s-3.63-1.614-6.606-1.638H55v23.76h13.392zm-2.232-14.328h-4.104v-4.248h4.104c1.8 0 2.7.708 2.7 2.124 0 1.416-.9 2.124-2.7 2.124zm.54 9.36h-4.644v-4.284H66.7c.936 0 1.632.18 2.088.54.456.36.684.888.684 1.584 0 .696-.228 1.23-.684 1.602-.456.372-1.152.558-2.088.558zm32.757 4.968v-5.508H87.181v-3.78h9.432v-5.112h-9.432v-3.852H98.99V93.36H79.837v23.76h19.62zm12.67.36c2.087 0 3.78-.45 5.075-1.35a6.157 6.157 0 0 0 1.62-1.642l.125-.196.271 2.828h4.932v-13.14h-10.872v4.716h4.68v.18c0 .528-.096.99-.288 1.386a2.581 2.581 0 0 1-.846.99 4.036 4.036 0 0 1-1.278.594 5.963 5.963 0 0 1-1.584.198c-1.128 0-2.076-.234-2.844-.702-.768-.468-1.338-1.206-1.71-2.214-.372-1.008-.558-2.304-.558-3.888 0-1.464.168-2.688.504-3.672.336-.984.846-1.722 1.53-2.214s1.542-.738 2.574-.738c1.008 0 1.848.246 2.52.738.672.492 1.128 1.326 1.368 2.502l6.84-2.556c-.936-2.184-2.262-3.78-3.978-4.788-1.716-1.008-3.978-1.512-6.786-1.512-2.496 0-4.656.486-6.48 1.458a9.933 9.933 0 0 0-4.194 4.212c-.972 1.836-1.458 4.05-1.458 6.642 0 2.64.468 4.872 1.404 6.696.936 1.824 2.22 3.192 3.852 4.104 1.632.912 3.492 1.368 5.58 1.368zm23.252-.36V93.36h-7.344v23.76h7.344zm10.654 0v-10.296l-.144-4.68h.072l1.512 3.204 6.48 11.772h8.064V93.36h-6.444v10.296l.144 4.68h-.036l-1.548-3.204-6.48-11.772h-8.028v23.76h6.408zm26.709 0v-9.504l-.144-7.668h.108l5.148 17.172h5.904l5.22-17.172h.072l-.144 7.668v9.504h6.48V93.36h-9.9l-3.204 11.268-1.188 4.716h-.072l-1.188-4.716-3.204-11.268h-10.368v23.76h6.48zm31.893 0 1.364-4.931h7.24l1.332 4.931h7.56l-8.028-23.76h-8.82l-7.992 23.76h7.344zm7.321-9.683h-4.642l1.317-4.753.972-3.852h.072l1.008 3.888 1.273 4.717zm22.808 9.683V98.868h7.56V93.36h-22.536v5.508h7.632v18.252h7.344zm30.057 0v-5.508h-12.276v-3.78h9.432v-5.112h-9.432v-3.852h11.808V93.36h-19.152v23.76h19.62z"/></g></svg>
